!!!COM: Palestrina, Giovanni Perluigi da
!!!OPR: Missa L'homme arme (1582)
!!!OTL: Agnus I
**kern	**kern	**kern	**kern
*Ibass	*Itenor	*Icalto	*Icant
!Bassus	!Tenor	!Altus	!Cantus
*clefF4	*clefGv2	*clefG2	*clefG2
*k[]	*k[]	*k[]	*k[]
*D:dor	*D:dor	*D:dor	*D:dor
*M4/2	*M4/2	*M4/2	*M4/2
=1	=1	=1	=1
1r	0r	1.d	0r
[1D	.	.	.
.	.	2c	.
=2	=2	=2	=2
2D]	0r	1B	0d
2E	.	.	.
2F#	.	2A	.
[2G	.	[2B	.
=3	=3	=3	=3
2G]	1r	2B]	0d
4F#	.	4A	.
4E	.	4G	.
2F#	2r	2A	.
2G	[2G	2B	.
=4	=4	=4	=4
1C	2G]	1e	[0g
.	2A	.	.
1r	2B	2d	.
.	[2c	[2e	.
=5	=5	=5	=5
0r	2c]	2e]	0g]
.	4B	4d	.
.	4A	4c	.
.	2B	2d	.
.	2c	[2e	.
=6	=6	=6	=6
0r	2.F	4e]	1f
.	.	4d	.
.	.	1d	.
.	4G	.	.
.	[1A	.	1e
.	.	2c#	.
=7	=7	=7	=7
1.D	1A]	2.d	[0d
.	.	4c	.
.	1r	1B	.
2E	.	.	.
=8	=8	=8	=8
2F#	1r	2A	1d]
1G	.	2G	.
.	2r	1A	1r
4F#	[2A	.	.
4E	.	.	.
=9	=9	=9	=9
2F#	2A]	1d	1r
2G	2B	.	.
2A	2c	1f	[1a
2D	[2d	.	.
=10	=10	=10	=10
1A	2d]	2.e	1a]
.	4c#	.	.
.	4B	4d	.
1r	2c#	2e	1a
.	2d	[2f	.
=11	=11	=11	=11
0r	1B-	2f]	1d
.	.	4e	.
.	.	4d	.
.	2A	2c	[1a
.	2d	2f	.
=12	=12	=12	=12
0r	2c	2e	1a]
.	2A	2c	.
.	2B	2d	[1g
.	[2c	[2e	.
=13	=13	=13	=13
0r	4c]	4e]	2g]
.	4B	4d	.
.	1A	4c	2f
.	.	4B	.
.	.	2c	1e
.	[2G	2B	.
=14	=14	=14	=14
0D	2G]	1.A	0d
.	4F	.	.
.	4E	.	.
.	2F#	.	.
.	[2G	2B	.
=15	=15	=15	=15
1D	2G]	1A	2r
.	2F#	.	1a
1GG	1B	2r	.
.	.	2d	[2g
=16	=16	=16	=16
1D	2.A	1d	2g]
.	.	.	2f
.	4B	.	.
[1C	2c	1G	2.e
.	4C	.	.
.	4D	.	4f
=17	=17	=17	=17
2C]	4E	2r	1g
.	4F	.	.
2BB-	2G	1d	.
1AA	2F	.	1a
.	2E	[2c	.
=18	=18	=18	=18
2GG	1G	2c]	2.d
2G	.	2B-	.
.	.	.	4e
2F	1D	2A	1f
2D	.	[2d	.
=19	=19	=19	=19
1A	1r	2d]	1e
.	.	2c#	.
2D	2r	1d	2d
2F	2d	.	2a
=20	=20	=20	=20
2G	2d	1r	2b
2.A	1c	.	2.cc
.	.	2r	.
4G	.	.	4b-
4F	2c	[2A	4a
4E	.	.	4g
=21	=21	=21	=21
2D	1d	2A]	2f
2G	.	2B	2g
[1F	1A	2.c	1a
.	.	4B-	.
=22	=22	=22	=22
2F]	2r	4A	2a
.	.	4G	.
2D	2d	2F	2a
1r	2d	2G	2b
.	[2c	[2A	[2cc
=23	=23	=23	=23
0r	2c]	4A]	4cc]
.	.	4G	4b-
.	2c	4F	4a
.	.	4E	4g
.	1d	2D	1f
.	.	[2d	.
=24	=24	=24	=24
1r	1A	2d]	2e
.	.	2c	1a
2r	1r	1B	.
2E	.	.	2g#
=25	=25	=25	=25
2F#	2r	2A	2a
2.G	2d	2G	1b
.	2d	1g	.
4F	.	.	.
4E	[2e	.	2b
4D	.	.	.
=26	=26	=26	=26
2C	2e]	2g	2cc
2GG	2d	2g	1b
1AA	1c	1e	.
.	.	.	[2a
=27	=27	=27	=27
1E	1B	1e	2a]
.	.	.	2g#
2r	1A	2r	1a
2C	.	2e	.
=28	=28	=28	=28
2D	2r	2f#	2r
2.E	2G	2.g	2b
.	2G	.	2b
4D	.	4f	.
4C	[2A	4e	[2cc
4BB	.	4d	.
=29	=29	=29	=29
2AA	2A]	2c	2cc]
2C	2G	1e	2cc
1D	1F	.	[1a
.	.	[2d	.
=30	=30	=30	=30
0AA	0E	2d]	0a]
.	.	4c#	.
.	.	4B	.
.	.	1c#	.
=31	=31	=31	=31
[0D	[0D	[0d	[0f#
=32	=32	=32	=32
0D]	0D]	0d]	0f#]
==	==	==	==
*-	*-	*-	*-
!!!CDT: 1525/^1526/-1594/2/2
!!!OCY: Italia
!!!AGN: Mass (Paraphrase)
!!!AST: renaissance, vocal
!!!ASW: Popular Song
!!!PWK: Masses, Book 4
!!!RNB: Cadence finals: A
!!!YOR: Le Opere Complete, v. 10, p. 60
!!!YOO: Rome, Italy: Fratelli Scalera
!!!END: 1992//
!!!EED: John Miller
!!!YEC: Copyright 2000, John Miller
!!!YEN: United States of America
!!!YEM: Rights to all derivative electronic formats reserved.
!!!YEM: Refer to licensing agreement for further details.
!!!YEM: This file must be accompanied by the licensing agreement.
!!!YEM: A copy of the licensing agreement may be found at http://www.music-cog.ohio-state.edu/HumdrumDatabases/Palestrina/license.txt
!!!EMD: converted to Humdrum by Bret Aarden
